build/img/sprite/icon-maindirection-transf.svg

<svg width="85" height="85" viewBox="0 0 85 85" fill="none" xmlns="http://www.w3.org/2000/svg">
<circle cx="42.5" cy="42.5" r="42" stroke="white"/>
<path d="M41.1442 19.042C40.4724 18.3701 39.5791 18 38.6289 18C37.9039 18 37.2119 18.2155 36.6262 18.6161C36.0405 18.2154 35.3485 18 34.6235 18C33.6734 18 32.78 18.3701 32.1082 19.0419C31.4362 19.7138 31.0662 20.607 31.0662 21.5574C31.0662 22.5075 31.4362 23.4009 32.1082 24.0729L36.1136 28.078C36.2551 28.2195 36.4408 28.2903 36.6263 28.2903C36.8118 28.2903 36.9975 28.2195 37.1391 28.0779L41.1442 24.0727C42.5308 22.6855 42.5307 20.4288 41.1442 19.042ZM40.1185 23.0473L36.6264 26.5396L33.1338 23.0473C32.7359 22.6494 32.5167 22.1202 32.5167 21.5574C32.5167 20.9947 32.7357 20.4655 33.1337 20.0676C33.5316 19.6696 34.0607 19.4504 34.6235 19.4504C35.1863 19.4504 35.7154 19.6696 36.1136 20.0677C36.2495 20.2036 36.434 20.28 36.6264 20.28C36.8188 20.28 37.0032 20.2036 37.1391 20.0676C37.537 19.6696 38.0661 19.4504 38.6289 19.4504C39.1917 19.4504 39.7206 19.6696 40.1185 20.0676C40.9398 20.889 40.9397 22.2258 40.1185 23.0473Z" fill="white"/>
<path d="M47.8439 26.9149C47.4395 26.5102 46.9018 26.2875 46.3296 26.2875C45.9748 26.2875 45.6332 26.3733 45.3285 26.5349C45.0236 26.3733 44.6819 26.2875 44.327 26.2875C43.755 26.2875 43.2171 26.5103 42.813 26.9147C42.4085 27.319 42.1858 27.8568 42.1858 28.4287C42.1858 29.0007 42.4084 29.5384 42.813 29.9429L44.8159 31.9456C44.9519 32.0815 45.1364 32.1579 45.3288 32.1579C45.521 32.1579 45.7055 32.0815 45.8415 31.9455L47.8439 29.9428C48.6785 29.1079 48.6785 27.7494 47.8439 26.9149ZM46.818 28.9175L45.3286 30.4072L43.8385 28.9174C43.708 28.7869 43.6362 28.6134 43.6362 28.4288C43.6362 28.2442 43.708 28.0707 43.8386 27.9401C43.969 27.8097 44.1424 27.7378 44.3269 27.7378C44.5116 27.7378 44.6853 27.8098 44.8159 27.9404C44.9519 28.0763 45.1363 28.1527 45.3286 28.1527H45.3289C45.5212 28.1526 45.7056 28.0761 45.8416 27.9401C45.9719 27.8097 46.1451 27.7379 46.3295 27.7379C46.514 27.7379 46.6875 27.8098 46.818 27.9404C47.0874 28.2097 47.0872 28.648 46.818 28.9175Z" fill="white"/>
<path d="M59.5943 29.6803C59.4145 29.6803 55.1658 29.706 52.9285 31.9434L48.4325 36.4394L26.9513 31.0698C26.9461 31.0685 26.9408 31.0679 26.9356 31.0667C26.9218 31.0636 26.908 31.0608 26.8942 31.0585C26.8837 31.0567 26.8732 31.0552 26.8628 31.054C26.8503 31.0525 26.8378 31.0514 26.8253 31.0506C26.8136 31.0497 26.802 31.0491 26.7904 31.0489C26.7787 31.0487 26.7669 31.0488 26.7552 31.0491C26.7435 31.0495 26.7318 31.05 26.7201 31.0508C26.708 31.0518 26.6959 31.0532 26.6838 31.0547C26.6731 31.0561 26.6624 31.0574 26.652 31.0593C26.6384 31.0616 26.625 31.0645 26.6115 31.0676C26.6029 31.0697 26.5944 31.0716 26.5858 31.0739C26.5706 31.0779 26.5557 31.0828 26.5408 31.0879C26.5343 31.0901 26.5276 31.0923 26.521 31.0948C26.5052 31.1008 26.4896 31.1074 26.4741 31.1145C26.4685 31.117 26.463 31.1195 26.4576 31.1222C26.4423 31.1296 26.4274 31.1377 26.4127 31.1463C26.4069 31.1496 26.4009 31.153 26.3953 31.1565C26.382 31.1647 26.369 31.1735 26.3561 31.1826C26.3488 31.1877 26.3417 31.193 26.3346 31.1983C26.3239 31.2066 26.3134 31.2151 26.3032 31.2239C26.2943 31.2316 26.2856 31.2395 26.2771 31.2475C26.2724 31.2519 26.2674 31.2559 26.2628 31.2605L24.2119 33.3111C24.2084 33.3146 24.2055 33.3185 24.2021 33.3219C24.1928 33.3316 24.1839 33.3414 24.1751 33.3516C24.167 33.3611 24.1591 33.3707 24.1515 33.3805C24.1482 33.3847 24.1446 33.3886 24.1414 33.3929C24.1379 33.3976 24.135 33.4026 24.1316 33.4075C24.1237 33.4189 24.116 33.4304 24.1087 33.4422C24.1031 33.4511 24.0978 33.4601 24.0927 33.4692C24.0862 33.4809 24.0799 33.4927 24.0741 33.5047C24.0692 33.5147 24.0645 33.5246 24.0601 33.5347C24.0552 33.546 24.0506 33.5574 24.0463 33.5689C24.0422 33.5799 24.0382 33.5912 24.0346 33.6024C24.0311 33.6132 24.0279 33.624 24.025 33.6349C24.0218 33.647 24.0188 33.6591 24.0161 33.6712C24.0139 33.6817 24.0119 33.6922 24.0101 33.7027C24.0081 33.7152 24.0062 33.7277 24.0048 33.7402C24.0036 33.7509 24.0026 33.7617 24.0019 33.7724C24.001 33.7847 24.0004 33.7969 24.0001 33.8091C23.9999 33.8204 24 33.8316 24.0003 33.843C24.0007 33.8546 24.0011 33.8661 24.002 33.8777C24.0028 33.8897 24.0041 33.9017 24.0055 33.9136C24.0069 33.9244 24.0083 33.9351 24.0102 33.9456C24.0123 33.9582 24.0148 33.9707 24.0177 33.9831C24.0199 33.9932 24.0223 34.0031 24.025 34.0131C24.0284 34.0257 24.0323 34.0382 24.0364 34.0506C24.0396 34.0604 24.0428 34.0701 24.0466 34.0798C24.0511 34.0917 24.056 34.1036 24.0611 34.1153C24.0654 34.1254 24.0701 34.1353 24.0749 34.1452C24.0803 34.1559 24.086 34.1666 24.0919 34.1772C24.0977 34.1878 24.1039 34.1982 24.1103 34.2084C24.1162 34.2179 24.1223 34.2271 24.1286 34.2364C24.1362 34.2472 24.1441 34.2579 24.1523 34.2685C24.1586 34.2768 24.1653 34.2849 24.1721 34.293C24.1811 34.3035 24.1903 34.3138 24.2 34.3238C24.204 34.3281 24.2076 34.3327 24.2117 34.3368C24.2154 34.3405 24.2197 34.3437 24.2234 34.3474C24.2325 34.356 24.2418 34.3644 24.2513 34.3727C24.2614 34.3813 24.2716 34.3897 24.2819 34.3977C24.2858 34.4007 24.2894 34.4042 24.2934 34.4072L39.3419 45.5297L32.0494 52.8222L28.3726 51.5963C28.3654 51.5938 28.3582 51.5924 28.3509 51.5903C28.3374 51.5862 28.3239 51.5821 28.3101 51.5789C28.2983 51.5761 28.2864 51.5741 28.2745 51.5718C28.2636 51.5697 28.2528 51.5677 28.2418 51.5662C28.228 51.5643 28.2144 51.5631 28.2007 51.562C28.1912 51.5612 28.1819 51.5604 28.1724 51.56C28.158 51.5594 28.1437 51.5595 28.1292 51.5598C28.1201 51.56 28.1112 51.5601 28.1021 51.5606C28.0879 51.5614 28.0737 51.5628 28.0596 51.5645C28.0502 51.5656 28.0409 51.5667 28.0316 51.5681C28.0179 51.5702 28.0043 51.5729 27.9907 51.5759C27.9811 51.578 27.9717 51.58 27.9624 51.5823C27.9486 51.5859 27.9352 51.5901 27.9218 51.5944C27.9128 51.5973 27.9039 51.6 27.8949 51.6033C27.8806 51.6086 27.8664 51.6146 27.8525 51.6207C27.8449 51.624 27.8375 51.6271 27.83 51.6307C27.814 51.6384 27.7987 51.6468 27.7832 51.6556C27.779 51.6581 27.7745 51.6599 27.7703 51.6626L27.7608 51.6682C27.7596 51.6689 27.7584 51.6696 27.7572 51.6703L24.3581 53.7098C24.3563 53.7108 24.3547 53.7118 24.353 53.7129L24.3518 53.7136C24.3499 53.7147 24.3484 53.7161 24.3465 53.7172C24.328 53.7285 24.3098 53.7405 24.2923 53.7536C24.2867 53.7577 24.2815 53.7624 24.2761 53.7667C24.263 53.777 24.2499 53.7873 24.2376 53.7986C24.2291 53.8062 24.2215 53.8143 24.2135 53.8222C24.2048 53.8308 24.196 53.8392 24.1878 53.8482C24.177 53.8602 24.1672 53.8726 24.1573 53.8851C24.1526 53.8911 24.1475 53.8967 24.143 53.9029C24.1299 53.9203 24.118 53.9384 24.1067 53.9569C24.1056 53.9588 24.1043 53.9604 24.1031 53.9622C24.103 53.9624 24.1029 53.9626 24.1028 53.9628C24.078 54.0042 24.0575 54.0477 24.0414 54.0929C24.0345 54.1123 24.0289 54.1318 24.0238 54.1516C24.0231 54.1544 24.022 54.1571 24.0214 54.1599C24.0169 54.178 24.0135 54.1962 24.0104 54.2143C24.0096 54.2192 24.0083 54.224 24.0077 54.229C24.0053 54.2443 24.0042 54.2598 24.0029 54.2753C24.0023 54.2834 24.0011 54.2916 24.0008 54.2998C24.0002 54.3115 24.0005 54.3231 24.0006 54.3348C24.0005 54.347 24.0001 54.3591 24.0008 54.3713C24.0011 54.3791 24.0022 54.3868 24.0028 54.3945C24.0041 54.4104 24.0053 54.4261 24.0076 54.442C24.0083 54.4463 24.0094 54.4506 24.0101 54.4549C24.0132 54.4737 24.0167 54.4925 24.0214 54.5111C24.0216 54.512 24.0219 54.5128 24.0221 54.5137C24.0308 54.5473 24.0424 54.5805 24.056 54.6133C24.06 54.6231 24.0636 54.633 24.068 54.6426C24.0692 54.645 24.0707 54.6475 24.0718 54.6499C24.0813 54.6694 24.0913 54.6886 24.1024 54.7073C24.1027 54.7077 24.1028 54.7081 24.103 54.7085C24.1039 54.7099 24.1049 54.711 24.1058 54.7123C24.1198 54.7356 24.1356 54.7579 24.1524 54.7797C24.1574 54.786 24.1626 54.7923 24.1677 54.7985C24.1815 54.8151 24.196 54.831 24.2115 54.8465C24.2171 54.8522 24.2227 54.8582 24.2285 54.8638C24.2483 54.8824 24.2692 54.9002 24.2915 54.9167C24.2986 54.922 24.3062 54.9265 24.3135 54.9314C24.3262 54.9402 24.3384 54.9492 24.3518 54.9571L30.3925 58.5817L29.6816 59.2925C29.3984 59.5757 29.3984 60.0349 29.6816 60.318C29.8233 60.4596 30.0089 60.5305 30.1945 60.5305C30.38 60.5305 30.5656 60.4597 30.7073 60.318L31.4181 59.6072L35.0388 65.6415C35.0398 65.6432 35.0409 65.6449 35.0419 65.6466L35.0426 65.6478C35.043 65.6485 35.0436 65.6491 35.044 65.6498C35.0586 65.674 35.0749 65.6971 35.0925 65.7196C35.0971 65.7256 35.1019 65.7314 35.1067 65.7372C35.1208 65.7543 35.1359 65.7708 35.1519 65.7868C35.1572 65.7921 35.1623 65.7976 35.1677 65.8028C35.1878 65.8216 35.2088 65.8396 35.2314 65.8563C35.2379 65.8612 35.2449 65.8652 35.2516 65.8699C35.2647 65.879 35.2776 65.8883 35.2914 65.8966C35.2943 65.8984 35.2975 65.8996 35.3005 65.9012C35.3182 65.9116 35.3365 65.9203 35.3548 65.929C35.3662 65.9343 35.3772 65.9403 35.3887 65.945C35.4048 65.9516 35.4214 65.9566 35.4379 65.9621C35.4519 65.9667 35.4657 65.972 35.4799 65.9758C35.4942 65.9795 35.5088 65.9817 35.5231 65.9846C35.5394 65.9878 35.5556 65.9919 35.5721 65.994C35.5917 65.9965 35.6116 65.997 35.6316 65.9979C35.6424 65.9984 35.6532 66.0001 35.6638 66.0001C35.664 66.0001 35.6643 66 35.6645 66C35.6647 66 35.665 66.0001 35.6651 66.0001C35.6759 66.0001 35.6867 65.9984 35.6974 65.9979C35.7173 65.997 35.7372 65.9965 35.7568 65.994C35.7733 65.9919 35.7897 65.9879 35.8061 65.9845C35.8204 65.9817 35.8348 65.9795 35.849 65.9759C35.8633 65.9721 35.8773 65.9667 35.8915 65.9619C35.9078 65.9566 35.9241 65.9516 35.9401 65.945C35.9518 65.9402 35.9632 65.9341 35.9748 65.9286C35.9928 65.9201 36.0108 65.9115 36.0281 65.9013C36.0312 65.8996 36.0344 65.8983 36.0376 65.8966C36.052 65.8879 36.0654 65.8783 36.0789 65.8688C36.085 65.8646 36.0913 65.8609 36.0972 65.8564C36.12 65.8396 36.1411 65.8215 36.1614 65.8024C36.1666 65.7975 36.1716 65.7921 36.1767 65.787C36.1927 65.7708 36.208 65.7542 36.2224 65.7368C36.2271 65.7311 36.2319 65.7254 36.2364 65.7195C36.2538 65.6971 36.2702 65.674 36.2848 65.6498C36.2853 65.6491 36.2859 65.6484 36.2863 65.6476L36.2872 65.646C36.2881 65.6445 36.2892 65.6429 36.2901 65.6413L38.3373 62.2289C38.3418 62.2214 38.3454 62.2136 38.3495 62.206C38.3557 62.1948 38.362 62.1837 38.3675 62.1721C38.3729 62.1609 38.3778 62.1495 38.3826 62.1379C38.3868 62.1278 38.3913 62.1178 38.3951 62.1075C38.3997 62.0951 38.4037 62.0825 38.4075 62.0699C38.4106 62.06 38.4137 62.0503 38.4164 62.0402C38.4197 62.0276 38.4224 62.0148 38.4252 62.0021C38.4273 61.9917 38.4295 61.9812 38.4312 61.9706C38.433 61.9585 38.4344 61.9464 38.4357 61.9342C38.437 61.9227 38.4382 61.911 38.4389 61.8994C38.4396 61.8882 38.4398 61.8769 38.4399 61.8657C38.4401 61.8537 38.4402 61.8411 38.4397 61.8285C38.4392 61.8179 38.4383 61.8072 38.4374 61.7966C38.4364 61.7838 38.4353 61.771 38.4336 61.7581C38.432 61.747 38.4298 61.7359 38.4279 61.7249C38.4256 61.7129 38.4236 61.701 38.4207 61.689C38.4177 61.6765 38.414 61.6642 38.4102 61.6518C38.4079 61.6435 38.4061 61.6351 38.4033 61.6269L37.1772 57.95L58.053 37.0743C58.054 37.0732 58.0552 37.0722 58.0563 37.0712C60.2937 34.8338 60.3194 30.5853 60.3194 30.4055C60.3195 30.005 59.9948 29.6803 59.5943 29.6803ZM25.8327 33.7414L26.9978 32.5764L47.2365 37.6353L40.3791 44.4926L25.8327 33.7414ZM57.0331 36.043C57.0323 36.0439 57.0314 36.0445 57.0305 36.0454L35.8347 57.2413C35.8323 57.2438 35.8303 57.2464 35.8279 57.2488C35.818 57.2591 35.8087 57.2697 35.7993 57.2804C35.7924 57.2884 35.7854 57.2963 35.7789 57.3044C35.7717 57.3135 35.7651 57.323 35.7583 57.3325C35.7507 57.343 35.7432 57.3534 35.7363 57.3642C35.7315 57.3716 35.7273 57.3794 35.7228 57.3869C35.7151 57.4 35.7076 57.4129 35.7008 57.4262C35.6975 57.4328 35.6947 57.4396 35.6914 57.4464C35.6847 57.4608 35.678 57.4753 35.6722 57.49C35.6693 57.4975 35.6669 57.5052 35.6642 57.5128C35.6593 57.5268 35.6542 57.5409 35.6501 57.5551C35.6473 57.5653 35.6452 57.5756 35.6426 57.5858C35.6398 57.5977 35.6367 57.6096 35.6344 57.6217C35.6321 57.6346 35.6306 57.6478 35.6289 57.661C35.6276 57.6706 35.6261 57.6801 35.6251 57.6898C35.6239 57.7043 35.6235 57.7187 35.6231 57.7333C35.6229 57.7421 35.6223 57.7508 35.6223 57.7595C35.6224 57.7734 35.6234 57.7872 35.6243 57.801C35.6249 57.811 35.6253 57.8209 35.6264 57.8308C35.6277 57.8427 35.6296 57.8546 35.6315 57.8664C35.6334 57.8787 35.6352 57.8909 35.6379 57.903C35.6398 57.9127 35.6424 57.9223 35.6448 57.9318C35.6484 57.9462 35.6522 57.9604 35.6567 57.9746C35.6576 57.9776 35.6582 57.9807 35.6592 57.9838L36.9215 61.7695L35.6639 63.8656L32.4746 58.5505L35.4929 55.5322C35.7764 55.2488 35.7764 54.7896 35.4932 54.5064C35.2099 54.2232 34.7508 54.2232 34.4676 54.5064L31.4494 57.5246L26.1342 54.3353L28.2304 53.0776L32.0161 54.34C32.0185 54.3408 32.0209 54.3409 32.0233 54.3418C32.0556 54.3522 32.0884 54.3602 32.1215 54.3659C32.1296 54.3673 32.1376 54.3683 32.1457 54.3694C32.1756 54.3735 32.2056 54.3762 32.2357 54.3766C32.239 54.3767 32.2422 54.3775 32.2456 54.3775C32.2493 54.3775 32.2529 54.3766 32.2566 54.3766C32.2853 54.3762 32.3139 54.3737 32.3425 54.3699C32.3515 54.3687 32.3604 54.3675 32.3693 54.366C32.4001 54.3607 32.4307 54.3536 32.4608 54.3442C32.4669 54.3422 32.4728 54.34 32.4789 54.3378C32.5062 54.3285 32.533 54.3176 32.5594 54.3049C32.5643 54.3026 32.5694 54.3005 32.5743 54.298C32.6027 54.2835 32.6302 54.2669 32.6568 54.2485C32.6637 54.2437 32.6705 54.2384 32.6773 54.2334C32.6981 54.2179 32.7181 54.2013 32.7375 54.1833C32.7434 54.1778 32.7498 54.1727 32.7555 54.167C32.7564 54.1662 32.7573 54.1655 32.7581 54.1647L53.954 32.9688C55.265 31.6577 57.6157 31.2816 58.8268 31.1738C58.7205 32.383 58.3466 34.7271 57.0331 36.043Z" fill="white"/>
<path d="M58.9485 63.1729C58.9478 63.1611 58.9466 63.1493 58.9453 63.1375C58.944 63.1265 58.9424 63.1156 58.9405 63.1047C58.9383 63.0909 58.9356 63.0773 58.9325 63.0637C58.9313 63.0584 58.9307 63.0532 58.9294 63.0478L54.2806 44.4503C54.1835 44.0617 53.7895 43.8256 53.4012 43.9227C53.0126 44.0198 52.7764 44.4135 52.8735 44.8021L57.4226 63.0012L56.2577 64.1662L46.8788 51.4767C46.6408 51.1546 46.1867 51.0866 45.8646 51.3246C45.5425 51.5626 45.4745 52.0167 45.7125 52.3388L55.5921 65.7055C55.5945 65.7088 55.5975 65.7118 55.6001 65.7151C55.6114 65.7298 55.6234 65.7439 55.6359 65.7579C55.6426 65.7653 55.649 65.7728 55.6558 65.7799C55.6582 65.7823 55.6601 65.7849 55.6625 65.7872C55.6729 65.7976 55.6839 65.8068 55.6949 65.8165C55.7018 65.8227 55.7085 65.8294 55.7157 65.8353C55.736 65.8519 55.7569 65.8673 55.7783 65.8813C55.7843 65.8852 55.7905 65.8885 55.7965 65.8921C55.8131 65.9023 55.83 65.9122 55.8473 65.921C55.8552 65.9249 55.8632 65.9284 55.8712 65.9321C55.8873 65.9396 55.9036 65.9466 55.9201 65.9528C55.9285 65.956 55.937 65.9588 55.9455 65.9617C55.9622 65.9672 55.9791 65.9721 55.9959 65.9764C56.0045 65.9786 56.0129 65.9808 56.0215 65.9827C56.0394 65.9865 56.0575 65.9895 56.0756 65.9921C56.0833 65.9932 56.0909 65.9946 56.0986 65.9953C56.1236 65.9981 56.1488 65.9996 56.1739 65.9997C56.1746 65.9997 56.1753 65.9998 56.176 65.9998C56.1769 65.9998 56.1777 65.9996 56.1785 65.9996C56.2107 65.9995 56.2429 65.9965 56.2748 65.9921C56.2825 65.991 56.29 65.9901 56.2977 65.9888C56.3295 65.9834 56.3611 65.976 56.3921 65.9663C56.3981 65.9644 56.4041 65.9621 56.41 65.96C56.4404 65.9496 56.4703 65.9374 56.4994 65.923C56.5021 65.9216 56.5047 65.9205 56.5075 65.9192C56.5387 65.9032 56.5687 65.8842 56.5977 65.8633C56.6005 65.8612 56.6036 65.8599 56.6065 65.8578C56.6107 65.8547 56.6143 65.8513 56.6183 65.8482C56.6286 65.8403 56.6386 65.8319 56.6484 65.8234C56.6581 65.8152 56.6675 65.8067 56.6766 65.798C56.6804 65.7943 56.6845 65.7912 56.6883 65.7874L58.739 63.7367C58.743 63.7326 58.7466 63.7281 58.7506 63.724C58.7597 63.7144 58.7684 63.7047 58.7769 63.6947C58.7845 63.6854 58.792 63.6762 58.7993 63.6669C58.8059 63.6582 58.8123 63.6495 58.8185 63.6406C58.8264 63.6295 58.8338 63.6183 58.8411 63.6069C58.8459 63.5989 58.8506 63.5909 58.8552 63.5829C58.8624 63.5703 58.8693 63.5577 58.8756 63.5449C58.8795 63.5368 58.8833 63.5287 58.8869 63.5204C58.8926 63.5076 58.8983 63.4947 58.9032 63.4815C58.9068 63.4722 58.9099 63.4628 58.9131 63.4534C58.9172 63.4412 58.9211 63.429 58.9245 63.4167C58.9276 63.4055 58.9301 63.3942 58.9328 63.383C58.9352 63.372 58.9376 63.3612 58.9395 63.3501C58.9418 63.3373 58.9434 63.3247 58.945 63.3118C58.9463 63.3017 58.9474 63.2916 58.9482 63.2815C58.9493 63.2682 58.9498 63.2549 58.9501 63.2416C58.9504 63.2312 58.9506 63.2209 58.9504 63.2105C58.9501 63.198 58.9494 63.1855 58.9485 63.1729Z" fill="white"/>
</svg>

<svg width="85" height="85" fill="none" xmlns="http://www.w3.org/2000/svg"><circle cx="42.5" cy="42.5" r="42" stroke="#fff"/><path d="M41.144 19.042A3.534 3.534 0 0038.63 18a3.53 3.53 0 00-2.003.616A3.531 3.531 0 0034.624 18c-.95 0-1.844.37-2.516 1.042a3.534 3.534 0 00-1.042 2.515c0 .95.37 1.844 1.042 2.516l4.006 4.005a.723.723 0 001.025 0l4.005-4.005a3.562 3.562 0 000-5.031zm-1.026 4.005l-3.492 3.493-3.492-3.493a2.093 2.093 0 01-.617-1.49c0-.562.219-1.091.617-1.49a2.093 2.093 0 011.49-.617c.562 0 1.091.22 1.49.618a.725.725 0 001.025 0 2.093 2.093 0 011.49-.618 2.11 2.11 0 011.49 3.597zm7.726 3.868a2.126 2.126 0 00-1.514-.627 2.13 2.13 0 00-1.002.247 2.132 2.132 0 00-1.001-.247c-.572 0-1.11.222-1.514.627a2.127 2.127 0 00-.627 1.514c0 .572.222 1.11.627 1.514l2.003 2.003a.726.726 0 001.026 0l2.002-2.003a2.144 2.144 0 000-3.028zm-1.026 2.003l-1.49 1.49-1.49-1.49a.686.686 0 01-.202-.49c0-.184.072-.357.203-.488a.687.687 0 01.977 0 .726.726 0 001.026 0 .686.686 0 01.976 0 .69.69 0 010 .977z" fill="#fff"/><path d="M59.594 29.68c-.18 0-4.428.026-6.666 2.263l-4.495 4.496-21.482-5.37-.015-.002a.757.757 0 00-.252-.012l-.032.004a.709.709 0 00-.04.009l-.026.006a.65.65 0 00-.045.014l-.02.007a.763.763 0 00-.108.051l-.018.01a.762.762 0 00-.039.027l-.021.015a.778.778 0 00-.058.05l-.014.012-2.051 2.051c-.004.004-.006.008-.01.01a.76.76 0 00-.05.06l-.01.012-.01.014a.8.8 0 00-.097.195.634.634 0 00-.033.17.757.757 0 00.023.241.704.704 0 00.104.223.882.882 0 00.071.088l.012.013.011.01a.963.963 0 00.059.05l.011.01L39.342 45.53l-7.293 7.292-3.676-1.226-.022-.006-.04-.011-.037-.007a.603.603 0 00-.073-.01l-.029-.002h-.07a.67.67 0 00-.111.016l-.029.006a.762.762 0 00-.04.012l-.027.01a.785.785 0 00-.043.017l-.022.01a.777.777 0 00-.047.025l-.013.007-.01.005-.003.002-3.399 2.04a.086.086 0 00-.005.003h-.001l-.006.004a.693.693 0 00-.054.037l-.016.013c-.013.01-.026.02-.038.032a.175.175 0 00-.024.023l-.026.026-.03.037-.015.018a.67.67 0 00-.036.054l-.004.005a.729.729 0 00-.08.19l-.002.008a.749.749 0 00-.01.054l-.003.015a.34.34 0 00-.005.046L24 54.3v.07l.002.023a.39.39 0 00.005.048l.002.013a.681.681 0 00.011.056l.001.003c.009.033.02.066.034.1l.012.029.004.007.03.057.001.002.003.003a.71.71 0 00.046.068l.016.018a.705.705 0 00.044.048l.017.018c.02.018.04.036.063.053l.021.014a.33.33 0 00.039.026l6.04 3.625-.71.71a.725.725 0 101.025 1.026l.711-.71 3.62 6.033.004.006.002.003c.015.024.03.047.049.07l.014.017a.7.7 0 00.045.05l.016.016c.02.019.04.037.063.053l.02.014.04.027.01.004c.017.01.035.02.054.028l.034.016a.405.405 0 00.049.017l.042.014c.014.004.029.006.043.009.016.003.033.007.05.009l.059.004.032.002h.001l.032-.002.06-.004c.016-.002.033-.006.05-.01.013-.002.028-.004.042-.008l.043-.014a.459.459 0 00.048-.017l.035-.016a.653.653 0 00.053-.028l.01-.004.04-.028.02-.013a.697.697 0 00.063-.054l.016-.015a.772.772 0 00.045-.05l.014-.017a.722.722 0 00.049-.07l.001-.002.001-.002.003-.005 2.047-3.412.012-.023.019-.034a.656.656 0 00.015-.034l.012-.03a.636.636 0 00.012-.038l.01-.03.008-.038c.002-.01.005-.02.006-.031a.882.882 0 00.003-.213l-.006-.033-.007-.036a.625.625 0 00-.01-.037l-.008-.025-1.226-3.677 20.876-20.876.003-.003c2.238-2.237 2.263-6.486 2.263-6.665a.725.725 0 00-.725-.726zm-33.761 4.061l1.165-1.165 20.238 5.06-6.857 6.857L25.833 33.74zm31.2 2.302l-.002.002-21.196 21.196-.007.008-.029.031-.02.024-.02.029a.665.665 0 00-.023.031l-.013.023a.766.766 0 00-.022.04l-.01.02a.801.801 0 00-.019.043l-.008.023-.014.042-.007.03-.009.037-.005.039-.004.029a.787.787 0 00-.002.043v.027l.001.041.002.03a.71.71 0 00.006.035.22.22 0 00.006.037l.007.029a.715.715 0 00.012.043l.002.009 1.263 3.785-1.258 2.097-3.19-5.316 3.019-3.018a.725.725 0 10-1.025-1.026l-3.019 3.019-5.315-3.19 2.096-1.257 3.786 1.262a.718.718 0 00.105.026l.025.003c.03.005.06.007.09.008h.02a.729.729 0 00.205-.033l.018-.006a.723.723 0 00.08-.033l.015-.007a.723.723 0 00.083-.05l.02-.015a.726.726 0 00.06-.05c.006-.005.013-.01.018-.016l.003-.002 21.196-21.196c1.311-1.311 3.662-1.687 4.873-1.795-.106 1.209-.48 3.553-1.794 4.869z" fill="#fff"/><path d="M58.949 63.173a.705.705 0 00-.017-.11l-.003-.015-4.648-18.598a.725.725 0 00-1.407.352l4.549 18.2-1.165 1.164-9.38-12.69a.725.725 0 00-1.166.863l9.88 13.367.008.01a.758.758 0 00.036.042l.02.022.007.007.032.03.02.018a.837.837 0 00.063.046l.019.011.05.029.024.011a.695.695 0 00.05.02l.025.01.05.014.026.007a.826.826 0 00.054.01l.023.002a.63.63 0 00.075.005h.004a.722.722 0 00.097-.008l.023-.003a.72.72 0 00.094-.023l.018-.006c.03-.01.06-.023.09-.037l.008-.004a.706.706 0 00.09-.056l.008-.005.012-.01a.65.65 0 00.059-.05l.011-.01 2.051-2.051.012-.013a.724.724 0 00.152-.242l.01-.029a.705.705 0 00.012-.036l.008-.034.007-.033a.706.706 0 00.01-.108v-.031a.795.795 0 00-.002-.038z" fill="#fff"/></svg>
